!! 00000] TT[WS
!!!OTL: Jiaofu ge
!!!ARE: Asia, China,ÿShanxi Ningwu
!! Ethnic Group: Han
!! WI, 131 (2)
!!!SCT: J0158
!!!YEM: Copyright 1995, estate of Helmut Schaffrath.
**kern
*ICvox
*Ivox
*M2/4
*k[b-e-]
*B-:
{2ccc
=1
2gg}
=2
{8ccc
8ff
8ff
16ff
16gg
=3
8bb-
16gg
16bb-
4ccc
=4
8gg
8bb-
8ee-
8cc
=5
2ff}
=6
{8ccc
8fff
8ccc
8bb-
=7
8gg
16ff
16gg
8cc
8cc
=8
2ccc
=9
8gg
8bb-
8ee-
16ff
16ee-
=10
2cc}
==
!!!AGN: Xiaodiao. Qingge
!!!ONB: ESAC (Essen Associative Code) Database: CHINA
!!!AMT: simple duple
!!!AIN: vox
!!!EED: Helmut Schaffrath
!!!EEV: 1.0
*-
